assets/icons/cloudWhite.svg

<svg width="15" height="14" viewBox="0 0 15 14" fill="none" xmlns="http://www.w3.org/2000/svg">
<path d="M4.855 11.2814H3.73497C2.01997 11.1589 1.25 9.84054 1.25 8.66804C1.25 7.49554 2.01998 6.17137 3.70581 6.05471C3.94498 6.03137 4.15497 6.21804 4.17247 6.46304C4.18997 6.7022 4.00917 6.91221 3.76417 6.92971C2.6325 7.01137 2.125 7.86303 2.125 8.67387C2.125 9.4847 2.6325 10.3364 3.76417 10.418H4.855C5.09416 10.418 5.2925 10.6164 5.2925 10.8555C5.2925 11.0947 5.09416 11.2814 4.855 11.2814Z" fill="white"/>
<path d="M10.223 11.2827C10.2114 11.2827 10.2056 11.2827 10.1939 11.2827C9.95472 11.2827 9.73307 11.0844 9.73307 10.8452C9.73307 10.5944 9.91973 10.4077 10.1647 10.4077C10.8822 10.4077 11.5239 10.1569 12.0256 9.70773C12.9356 8.91439 12.9939 7.77106 12.7489 6.96606C12.5039 6.16689 11.8214 5.25106 10.6314 5.10523C10.4389 5.08189 10.2872 4.93606 10.2522 4.74356C10.0189 3.34356 9.2664 2.37523 8.12306 2.02523C6.94473 1.65773 5.56804 2.01939 4.71054 2.91773C3.87637 3.78689 3.68388 5.00606 4.16805 6.34773C4.24971 6.57523 4.13307 6.82606 3.90557 6.90772C3.67807 6.98939 3.42723 6.87273 3.34556 6.64523C2.75639 5.00023 3.02473 3.42523 4.08057 2.31689C5.15973 1.18523 6.89223 0.736055 8.37973 1.19106C9.74473 1.61106 10.7072 2.73689 11.0572 4.30022C12.2472 4.56856 13.2039 5.47273 13.5831 6.72106C13.9972 8.08023 13.6239 9.48023 12.6031 10.3669C11.9556 10.9502 11.1097 11.2827 10.223 11.2827Z" fill="white"/>
<path d="M7.5026 12.9974C6.3301 12.9974 5.23345 12.3732 4.63261 11.3641C4.56845 11.2649 4.50428 11.1482 4.45178 11.0199C4.25345 10.6057 4.14844 10.1332 4.14844 9.64323C4.14844 7.79406 5.65344 6.28906 7.5026 6.28906C9.35177 6.28906 10.8568 7.79406 10.8568 9.64323C10.8568 10.1391 10.7518 10.6057 10.5418 11.0374C10.4951 11.1482 10.431 11.2649 10.361 11.3757C9.77179 12.3732 8.6751 12.9974 7.5026 12.9974ZM7.5026 7.16406C6.1376 7.16406 5.02344 8.27823 5.02344 9.64323C5.02344 10.0049 5.09927 10.3432 5.24511 10.6524C5.29177 10.7516 5.3326 10.8332 5.37926 10.9091C5.8226 11.6616 6.63343 12.1224 7.49677 12.1224C8.3601 12.1224 9.17093 11.6616 9.60843 10.9207C9.66093 10.8332 9.70762 10.7516 9.74262 10.6699C9.90012 10.3491 9.97593 10.0107 9.97593 9.64906C9.98177 8.27823 8.8676 7.16406 7.5026 7.16406Z" fill="white"/>
<path d="M7.1659 10.6578C7.05506 10.6578 6.94425 10.617 6.85675 10.5295L6.27922 9.95198C6.11005 9.78281 6.11005 9.50281 6.27922 9.33365C6.44839 9.16448 6.72838 9.16448 6.89755 9.33365L7.17757 9.61365L8.11089 8.75031C8.29173 8.58698 8.56589 8.59864 8.72923 8.77364C8.89256 8.94864 8.88091 9.22865 8.70591 9.39199L7.4634 10.5412C7.3759 10.617 7.2709 10.6578 7.1659 10.6578Z" fill="white"/>
</svg>

<svg xmlns="http://www.w3.org/2000/svg" width="15" height="14" fill="none" viewBox="0 0 15 14"><path fill="#fff" d="M4.855 11.281h-1.12C2.02 11.16 1.25 9.841 1.25 8.668c0-1.172.77-2.497 2.456-2.613a.43.43 0 0 1 .466.408.437.437 0 0 1-.408.467c-1.131.081-1.639.933-1.639 1.744s.507 1.662 1.64 1.744h1.09a.44.44 0 0 1 .438.438.43.43 0 0 1-.438.425"/><path fill="#fff" d="M10.223 11.283h-.03c-.238 0-.46-.199-.46-.438 0-.25.187-.437.432-.437.717 0 1.359-.251 1.86-.7.91-.794.969-1.937.724-2.742-.245-.8-.928-1.715-2.118-1.86a.44.44 0 0 1-.379-.362c-.233-1.4-.986-2.369-2.129-2.719-1.178-.367-2.555-.006-3.412.893-.835.869-1.027 2.088-.543 3.43a.437.437 0 1 1-.822.297c-.59-1.645-.321-3.22.735-4.328C5.16 1.185 6.892.737 8.38 1.19c1.365.42 2.327 1.546 2.677 3.11 1.19.268 2.147 1.172 2.526 2.42.414 1.36.04 2.76-.98 3.646a3.56 3.56 0 0 1-2.38.916"/><path fill="#fff" d="M7.503 12.997a3.35 3.35 0 0 1-2.87-1.633 2 2 0 0 1-.181-.344 3.2 3.2 0 0 1-.304-1.377A3.36 3.36 0 0 1 7.503 6.29a3.36 3.36 0 0 1 3.354 3.354q0 .746-.315 1.394a2.4 2.4 0 0 1-.181.339 3.33 3.33 0 0 1-2.858 1.621m0-5.833a2.485 2.485 0 0 0-2.48 2.48c0 .36.076.7.222 1.008a2.47 2.47 0 0 0 2.252 1.47 2.46 2.46 0 0 0 2.111-1.201q.081-.13.135-.251.234-.48.233-1.02a2.477 2.477 0 0 0-2.473-2.486"/><path fill="#fff" d="M7.166 10.658a.43.43 0 0 1-.31-.128l-.577-.578a.44.44 0 0 1 0-.618.44.44 0 0 1 .619 0l.28.28.933-.864a.44.44 0 0 1 .618.024.44.44 0 0 1-.023.618l-1.243 1.15a.46.46 0 0 1-.297.116"/></svg>
